symbolic/status/task-past-due-symbolic.svg

<svg xmlns="http://www.w3.org/2000/svg" width="16" height="16"><path d="M8 0a2 2 0 0 0-2 2H2a1 1 0 0 0-1 1v11a1 1 0 0 0 1 1h8v-3H4v-1h6v-1h5V3a1 1 0 0 0-1-1h-4a2 2 0 0 0-2-2zm0 1a1 1 0 0 1 1 1 1 1 0 0 1-1 1 1 1 0 0 1-1-1 1 1 0 0 1 1-1zM4 5h8v1H4zm0 3h8v1H4z" opacity=".3" fill="#f8f8f2"/><path d="M11 11v1c0 .28.1.54.28.72l.78.78-.78.78c-.18.18-.28.44-.28.72v1h1c.28 0 .54-.1.72-.28l.78-.78.78.78c.18.18.44.28.72.28h1v-1c0-.28-.1-.54-.28-.72l-.78-.78.78-.78c.18-.18.28-.44.28-.72v-1h-1c-.28 0-.54.1-.72.28l-.78.78-.78-.78c-.18-.18-.44-.28-.72-.28z" fill="#f8f8f2"/></svg>

<svg xmlns="http://www.w3.org/2000/svg" width="16" height="16" version="1.1">
 <path style="opacity:0.3;fill:#dfdfdf" d="M 8,0 A 2,2 0 0 0 6,2 H 2 C 1.446,2 1,2.45 1,3 V 14 C 1,14.55 1.446,15 2,15 H 10 V 12 H 4 V 11 H 10 V 10 H 15 V 3 C 15,2.45 14.554,2 14,2 H 10 A 2,2 0 0 0 8,0 Z M 8,1 A 1,1 0 0 1 9,2 1,1 0 0 1 8,3 1,1 0 0 1 7,2 1,1 0 0 1 8,1 Z M 4,5 H 12 V 6 H 4 Z M 4,8 H 12 V 9 H 4 Z"/>
 <path style="fill:#dfdfdf" d="M 11,11 V 12 C 11,12.28 11.1,12.54 11.28,12.72 L 12.06,13.5 11.28,14.28 C 11.1,14.46 11,14.72 11,15 V 16 H 12 C 12.28,16 12.54,15.9 12.72,15.72 L 13.5,14.94 14.28,15.72 C 14.46,15.9 14.72,16 15,16 H 16 V 15 C 16,14.72 15.9,14.46 15.72,14.28 L 14.94,13.5 15.72,12.72 C 15.9,12.54 16,12.28 16,12 V 11 H 15 C 14.72,11 14.46,11.1 14.28,11.28 L 13.5,12.06 12.72,11.28 C 12.54,11.1 12.28,11 12,11 Z"/>
</svg>
